!!!COM: Schubert, Franz Peter
!!!CDT: 1797-1828
!!!OTL: Mut!
!!!OPS: Opus 89
!!!SCT: DV 911
!!!YOR: Franz Schubert: Selected songs
!!!PPE: Max Friedlaender
!!!PSR: C.F. Peters 
!!!PSP: Frankfurt, London, New York
!!!PSD: n.d.
!!!PPG: pp.42-44
!!!ODT: 1827///
!!!ONB: Leading and trailing bars of rest have been deleted.
**kern
*M2/4
*MM[Ziemlich geschwind, kraeftig]
*g:
*k[b-e-]
=1
8d
(16g
16a)
[4b-
=2
8b-]
8a
8g
8a
=3
4d
4r
=4
8.a
16bn
(16a
16g)
(16f#
16en)
=5
4f#
4d
=6
2r
=7
2r
=8
8d
(16g
16a)
[4b-
=9
8b-]
8g
8cc
8b-
=10
4a
4r
=11
8.g
16bn
(16een
16dd)
(16b
16g)
=12
4a
4g
=13
2r
=14
2r
=15
2r
=16
2r
=17
2r
=18
2r
=19
8d
(16g
16a)
[4b-
=20
8b-]
8a
8g
8a
=21
4d
4r
=22
8.a
16bn
(16a
16g)
(16f#
16en)
=23
4f#
4d
=24
2r
=25
2r
=26
8d
(16g
16a)
[4b-
=27
8b-]
8g
8cc
8b-
=28
4a
4r
=29
8.g
16bn
(16een
16dd)
(16b
16g)
=30
4a-
4g
=31
2r
=32
2r
=33
*G:
*k[f#]
8.a
16a
8a
(16g
16a)
=34
8b
8g
4a
=35
(16a
16dd)
(16cc#
16b)
(16a
16g)
(16f#
16e)
=36
4f#
4d
=37
2r
=38
2r
=39
8.a
16a
8a
(16b
16cc)
=40
8b
8g
4a
=41
8.g
16b
(16ee
16dd)
(16b
16g)
=42
4a
4g
=43
2r
=44
2r
=45
8.a
16a
8a
(16g
16a)
=46
8b-
8g
4a
=47
8.b-
16dd
(16cc
16ee-)
(16dd
16cc)
=48
4b-
4B-
=49
2r
=50
2r
=51
8.a
16a
8a
(16b
16cc)
=52
8b
8g
4a
=53
8g
(16b
16dd)
(16gg
16dd)
(16b
16g)
=54
4dd
4g
==
*-
!!!ENC: David Huron
!!!EMD: Paul von Hippel updated this file in the following ways (1998/9/2,21-22/):
!!!EMD:  (1) changed the representation of slurs from curly braces to parentheses 
!!!EMD:  (2) changed freeform comments into reference records and tandem interpretations
!!!EMD:  (3) changed final barline from quadruple (====) to double (==)
!!!EMD:  (4) added key signatures, key designations, and tempi
!!!EEV: Version 2.0
